X: 1
T: Duncan Johnstone
M: 4/4
L: 1/8
R: hornpipe
K: Ador
e|:Aeed edde|eABd e2g2|GddB dBBd|egde BdGB|
Aeed edde|eABd e2g2|eaag egBd|e2A2 A2AB:|
Aaag aeef|gefd e2dB|GddB dBBd|egde BdGB|
Aaag aeef|gefd e2dB|AAAB egBd|e2A2 A2 AB|
Aaag aeef|gefd e2dB|GddB dBBd|egde BdGB|
Aeed edde|eABd e2g2|eaag egBd|e2A2 A2gf|
|:eAA2 Aeed|BAAB e2ge|dGGG dBBd|egde BdGB|
eAA2 Aeed|BAAB e2g2|eaag egBd|e2A2 A2g2:|
aaag aeeg|aaag a2ef|gage degf|egde BdGB|
aaag aeeg|aaag a2ef|gaag egBd|e2A2 a2g2|
aaag aeeg|aaag a2ef|gage degf|egde BdGB|
e2de Aede|eABd e2g2|eaag egBd|e2A2 a2z2|
